X:1
T:Symphony No. 3 (3rd mvt Poco allegretto)
C:Johannes Brahms
M:3/8
L:1/8
Q:3/8=80
K:Cm
% Famous cello melody — A section. Pickup: C4. K:Cm gives Eb/Ab/Bb automatically.
C | E G E | C2 z | C B A | G2 F | E F G | A G F | E2 D | C2 z |
G A B | c2 z | G B G | E2 D | C D E | F2 E | D E F | G2 z |]
